client/public/img/game/shared/emotes/sun_and_moon.svg

<?xml version="1.0" encoding="UTF-8" standalone="no"?>
<!-- Created with Inkscape (http://www.inkscape.org/) -->

<svg
   width="84"
   height="84"
   viewBox="0 0 22.224999 22.225"
   version="1.1"
   id="svg5"
   xmlns="http://www.w3.org/2000/svg"
   xmlns:svg="http://www.w3.org/2000/svg">
  <defs
     id="defs2" />
  <g
     id="layer1">
    <g
       id="g4393"
       transform="matrix(1.530954,0,0,1.530954,-14.408512,-8.3460754)">
      <path
         style="fill:none;fill-opacity:1;stroke:#ffdb21;stroke-width:1.19199;stroke-linecap:square;stroke-linejoin:miter;stroke-dasharray:none;stroke-opacity:1"
         id="path3977"
         d="M 8.8407835,6.3159684 10.839688,7.3865673 9.8358991,9.4198425 10.823764,11.460902 8.8165532,12.515844 8.4160484,14.747748 6.1721011,14.421405 4.5362057,15.991642 2.9126338,14.408666 0.66620421,14.71746 0.28315695,12.482493 -1.7157471,11.411895 -0.71195866,9.3786194 -1.6998238,7.3375604 0.30738731,6.2826182 0.70789205,4.0507142 2.9518393,4.3770572 4.5877347,2.8068197 6.2113067,4.3897958 8.4577363,4.0810022 Z"
         transform="matrix(0.70554145,0,0,0.70554145,11.179121,4.6057195)" />
      <circle
         style="opacity:1;mix-blend-mode:normal;fill:#fff458;fill-opacity:1;stroke:#ffdb21;stroke-width:1.37438;stroke-linecap:square;stroke-dasharray:none;stroke-opacity:1"
         id="circle2569"
         cx="12.960885"
         cy="11.881912"
         r="6.1476846"
         transform="matrix(0.61410505,0,0,0.60973414,6.4384358,3.992459)" />
    </g>
    <g
       id="g4405"
       transform="matrix(1.530954,0,0,1.530954,7.2252054,-8.6551133)">
      <circle
         style="fill:#b1ac96;fill-opacity:1;stroke:none;stroke-width:0.541;stroke-linecap:square;stroke-linejoin:miter;stroke-dasharray:none;stroke-opacity:1"
         id="path4089"
         cx="5.8286314"
         cy="15.65202"
         r="3.6985469" />
      <circle
         style="fill:#5a584d;fill-opacity:1;stroke:#5a584d;stroke-width:0.540999;stroke-linecap:square;stroke-linejoin:miter;stroke-dasharray:none;stroke-opacity:1"
         id="path4091"
         cx="6.744637"
         cy="17.402344"
         r="0.33428231" />
      <circle
         style="fill:#5a584d;fill-opacity:1;stroke:#5a584d;stroke-width:0.540999;stroke-linecap:square;stroke-linejoin:miter;stroke-dasharray:none;stroke-opacity:1"
         id="circle4145"
         cx="5.446835"
         cy="13.823556"
         r="0.39327329" />
      <circle
         style="fill:#5a584d;fill-opacity:1;stroke:#5a584d;stroke-width:0.541;stroke-linecap:square;stroke-linejoin:miter;stroke-dasharray:none;stroke-opacity:1"
         id="circle4147"
         cx="4.7782702"
         cy="15.868577"
         r="0.19663663" />
      <circle
         style="fill:#5a584d;fill-opacity:1;stroke:#5a584d;stroke-width:0.541;stroke-linecap:square;stroke-linejoin:miter;stroke-dasharray:none;stroke-opacity:1"
         id="circle4155"
         cx="4.6406245"
         cy="17.75629"
         r="0.19663663" />
      <circle
         style="fill:#5a584d;fill-opacity:1;stroke:#5a584d;stroke-width:0.541;stroke-linecap:square;stroke-linejoin:miter;stroke-dasharray:none;stroke-opacity:1"
         id="circle4157"
         cx="8.1014299"
         cy="14.157839"
         r="0.19663663" />
      <circle
         style="fill:#5a584d;fill-opacity:1;stroke:#5a584d;stroke-width:0.541;stroke-linecap:square;stroke-linejoin:miter;stroke-dasharray:none;stroke-opacity:1"
         id="circle4159"
         cx="7.2165651"
         cy="15.593287"
         r="0.19663663" />
      <path
         style="opacity:0.434932;fill:#000000;fill-opacity:1;stroke:none;stroke-width:2.641;stroke-linecap:square;stroke-linejoin:miter;stroke-dasharray:none;stroke-opacity:1;paint-order:normal"
         d="m 5.7059675,11.994836 c 6.3107815,1.25343 3.6421406,7.306342 0,7.275556 2.0457719,-2.464178 2.1150449,-4.95569 0,-7.275556 z"
         id="path4221" />
      <circle
         style="fill:#5a584d;fill-opacity:1;stroke:#5a584d;stroke-width:0.541;stroke-linecap:square;stroke-linejoin:miter;stroke-dasharray:none;stroke-opacity:1"
         id="circle4161"
         cx="3.5787871"
         cy="14.43313"
         r="0.19663663" />
      <circle
         style="fill:none;fill-opacity:1;stroke:#5a584d;stroke-width:0.541;stroke-linecap:square;stroke-linejoin:miter;stroke-dasharray:none;stroke-opacity:1"
         id="circle4163"
         cx="5.8286314"
         cy="15.65202"
         r="3.6985469" />
    </g>
  </g>
</svg>

<svg xmlns="http://www.w3.org/2000/svg" width="84" height="84" viewBox="0 0 22.225 22.225"><g transform="matrix(1.53095 0 0 1.53095 -14.409 -8.346)"><path d="m8.84 6.316 2 1.07L9.836 9.42l.988 2.04-2.007 1.056-.401 2.232-2.244-.327-1.636 1.57-1.623-1.582-2.247.308-.383-2.235-1.999-1.07 1.004-2.033-.988-2.041L.307 6.283l.4-2.232 2.245.326 1.636-1.57L6.21 4.39l2.247-.309Z" style="fill:none;fill-opacity:1;stroke:#ffdb21;stroke-width:1.19199;stroke-linecap:square;stroke-linejoin:miter;stroke-dasharray:none;stroke-opacity:1" transform="translate(11.18 4.606)scale(.70554)"/><circle cx="12.961" cy="11.882" r="6.148" style="opacity:1;mix-blend-mode:normal;fill:#fff458;fill-opacity:1;stroke:#ffdb21;stroke-width:1.37438;stroke-linecap:square;stroke-dasharray:none;stroke-opacity:1" transform="matrix(.6141 0 0 .60973 6.438 3.992)"/></g><g transform="matrix(1.53095 0 0 1.53095 7.225 -8.655)"><circle cx="5.829" cy="15.652" r="3.699" style="fill:#b1ac96;fill-opacity:1;stroke:none;stroke-width:.541;stroke-linecap:square;stroke-linejoin:miter;stroke-dasharray:none;stroke-opacity:1"/><circle cx="6.745" cy="17.402" r=".334" style="fill:#5a584d;fill-opacity:1;stroke:#5a584d;stroke-width:.540999;stroke-linecap:square;stroke-linejoin:miter;stroke-dasharray:none;stroke-opacity:1"/><circle cx="5.447" cy="13.824" r=".393" style="fill:#5a584d;fill-opacity:1;stroke:#5a584d;stroke-width:.540999;stroke-linecap:square;stroke-linejoin:miter;stroke-dasharray:none;stroke-opacity:1"/><circle cx="4.778" cy="15.869" r=".197" style="fill:#5a584d;fill-opacity:1;stroke:#5a584d;stroke-width:.541;stroke-linecap:square;stroke-linejoin:miter;stroke-dasharray:none;stroke-opacity:1"/><circle cx="4.641" cy="17.756" r=".197" style="fill:#5a584d;fill-opacity:1;stroke:#5a584d;stroke-width:.541;stroke-linecap:square;stroke-linejoin:miter;stroke-dasharray:none;stroke-opacity:1"/><circle cx="8.101" cy="14.158" r=".197" style="fill:#5a584d;fill-opacity:1;stroke:#5a584d;stroke-width:.541;stroke-linecap:square;stroke-linejoin:miter;stroke-dasharray:none;stroke-opacity:1"/><circle cx="7.217" cy="15.593" r=".197" style="fill:#5a584d;fill-opacity:1;stroke:#5a584d;stroke-width:.541;stroke-linecap:square;stroke-linejoin:miter;stroke-dasharray:none;stroke-opacity:1"/><path d="M5.706 11.995c6.31 1.253 3.642 7.306 0 7.275 2.046-2.464 2.115-4.955 0-7.275" style="opacity:.434932;fill:#000;fill-opacity:1;stroke:none;stroke-width:2.641;stroke-linecap:square;stroke-linejoin:miter;stroke-dasharray:none;stroke-opacity:1;paint-order:normal"/><circle cx="3.579" cy="14.433" r=".197" style="fill:#5a584d;fill-opacity:1;stroke:#5a584d;stroke-width:.541;stroke-linecap:square;stroke-linejoin:miter;stroke-dasharray:none;stroke-opacity:1"/><circle cx="5.829" cy="15.652" r="3.699" style="fill:none;fill-opacity:1;stroke:#5a584d;stroke-width:.541;stroke-linecap:square;stroke-linejoin:miter;stroke-dasharray:none;stroke-opacity:1"/></g></svg>
